X: 0030
T: \AAsens brudl\aat
O: efter Viktor Gabrielsson
%R: march
N: Uppt. Carl Gustav F\"arje
B: Paul B\"ackstr\"om's "L\aatar fr\aan Dalarna" collection" 1974
Z: 2022 John Chambers <jc:trillian.mit.edu>
M: 2/4
L: 1/16
K: Dm
%%slurgraces 1
%%graceslurs 1
% - - - - - - - - - -
|:\
d4 cBAc | BAGB ({A}(3ABc | d4) cBAc | BAGB A4 | A2^c2 d4 | d2e2 f4 |
f2a2 a2g2 | b2a2 a2g2 | {e}f4 fgaf | d2f2 ((3{f}efe)~dc | d8 :|
|:\
f4 ((3{f}fgf)~ed | cdec A2A2 | {c}BABc d2B2 | [A8F8C8] | f4 ((3{f}fgf)~ed |
cdec A2A2 | {c}BABc d2B2 | [A8E8^C8] | A2^c2 d4 | d2e2 f4 | f2a2 a2g2 |
b2a2 a2ge | f4 fgaf | e4 efec | d2f2 ((3{f}efe)~dc | [d8D8] :|
% - - - - - - - - - -
%%text uppt. Carl Gustav F\"arje
